Sources/FrostedUI/Resources/Icons.xcassets/editProfile16.imageset/edit-profile-16.svg

<svg width="16" height="16" viewBox="0 0 16 16" fill="none" xmlns="http://www.w3.org/2000/svg" data-fui-icon="true">
  <path
    d="M11.7891 8.03516C12.7136 7.11108 14.2123 7.11094 15.1367 8.03516C16.0612 8.95965 16.0611 10.4592 15.1367 11.3838L11.916 14.6055C11.4746 15.0468 10.8957 15.3245 10.2754 15.3936L9.39258 15.4912C8.40559 15.6009 7.57143 14.7672 7.68066 13.7803L7.7793 12.8975C7.84825 12.277 8.12598 11.6983 8.56738 11.2568L11.7891 8.03516ZM6.23633 8.5C6.82545 8.5 7.39707 8.57524 7.93945 8.7168C8.34017 8.82138 8.58006 9.23111 8.47559 9.63184C8.37098 10.0326 7.96133 10.2726 7.56055 10.168C7.14146 10.0586 6.69714 10 6.23633 10C3.55346 10.0001 1.5 11.9669 1.5 14.25C1.5 14.6642 1.16421 15 0.75 15C0.335786 15 0 14.6642 0 14.25C0 11.0104 2.85914 8.50008 6.23633 8.5ZM9.62793 12.3174C9.42751 12.5179 9.30098 12.7807 9.26953 13.0625L9.17188 13.9453C9.16861 13.9769 9.19499 14.0033 9.22656 14L10.1094 13.9023C10.3913 13.871 10.6548 13.7445 10.8555 13.5439L12.6875 11.7119L11.4609 10.4844L9.62793 12.3174ZM14.0762 9.0957C13.7375 8.75727 13.1883 8.75742 12.8496 9.0957L12.5215 9.42383L13.748 10.6514L14.0762 10.3232C14.4147 9.98447 14.4148 9.43441 14.0762 9.0957ZM6.75 0C8.82107 0 10.5 1.67893 10.5 3.75C10.5 5.82107 8.82107 7.5 6.75 7.5C4.67893 7.5 3 5.82107 3 3.75C3 1.67893 4.67893 0 6.75 0ZM6.75 1.5C5.50736 1.5 4.5 2.50736 4.5 3.75C4.5 4.99264 5.50736 6 6.75 6C7.99264 6 9 4.99264 9 3.75C9 2.50736 7.99264 1.5 6.75 1.5Z"
    fill="currentColor"
  />
</svg>

<svg xmlns="http://www.w3.org/2000/svg" width="16" height="16" fill="none" data-fui-icon="true" viewBox="0 0 16 16"><path fill="currentColor" d="M11.79 8.035a2.368 2.368 0 0 1 3.347 3.349l-3.221 3.221a2.75 2.75 0 0 1-1.64.789l-.883.097a1.55 1.55 0 0 1-1.712-1.71l.098-.883c.07-.621.347-1.2.788-1.641zM6.235 8.5c.59 0 1.161.075 1.703.217a.75.75 0 0 1-.378 1.451A5.2 5.2 0 0 0 6.236 10C3.553 10 1.5 11.967 1.5 14.25a.75.75 0 0 1-1.5 0C0 11.01 2.86 8.5 6.236 8.5m3.392 3.817c-.2.2-.327.464-.358.745l-.098.883a.05.05 0 0 0 .055.055l.882-.098c.282-.031.546-.157.746-.358l1.832-1.832-1.226-1.228zm4.448-3.221a.87.87 0 0 0-1.226 0l-.328.328 1.226 1.227.328-.328a.87.87 0 0 0 0-1.227M6.75 0a3.75 3.75 0 1 1 0 7.5 3.75 3.75 0 0 1 0-7.5m0 1.5a2.25 2.25 0 1 0 0 4.5 2.25 2.25 0 0 0 0-4.5"/></svg>
